Newaita-dark/apps/32/typecatcher.svg

<?xml version="1.0" encoding="UTF-8"?>
<svg xmlns="http://www.w3.org/2000/svg" xmlns:xlink="http://www.w3.org/1999/xlink" width="32pt" height="32pt" viewBox="0 0 32 32" version="1.1">
<defs>
<radialGradient id="radial0" gradientUnits="userSpaceOnUse" cx="450.908936" cy="189.579361" fx="450.908936" fy="189.579361" r="21.166656" gradientTransform="matrix(0.00000017417,-0.0781325,-0.140638,-0.000000101539,50.146085,60.949246)">
<stop offset="0" style="stop-color:rgb(0%,0%,0%);stop-opacity:0.313725;"/>
<stop offset="0.222222" style="stop-color:rgb(0%,0%,0%);stop-opacity:0.27451;"/>
<stop offset="1" style="stop-color:rgb(0%,0%,0%);stop-opacity:0;"/>
</radialGradient>
<radialGradient id="radial1" gradientUnits="userSpaceOnUse" cx="450.908936" cy="189.579361" fx="450.908936" fy="189.579361" r="21.166656" gradientTransform="matrix(-0.00000017417,0.0781325,0.140638,0.000000101539,-19.716098,-10.173566)">
<stop offset="0" style="stop-color:rgb(0%,0%,0%);stop-opacity:0.313725;"/>
<stop offset="0.222222" style="stop-color:rgb(0%,0%,0%);stop-opacity:0.27451;"/>
<stop offset="1" style="stop-color:rgb(0%,0%,0%);stop-opacity:0;"/>
</radialGradient>
<radialGradient id="radial2" gradientUnits="userSpaceOnUse" cx="450.908936" cy="189.579361" fx="450.908936" fy="189.579361" r="21.166656" gradientTransform="matrix(-0.00000017417,-0.0781325,0.140638,-0.000000101539,-19.716098,60.949246)">
<stop offset="0" style="stop-color:rgb(0%,0%,0%);stop-opacity:0.313725;"/>
<stop offset="0.222222" style="stop-color:rgb(0%,0%,0%);stop-opacity:0.27451;"/>
<stop offset="1" style="stop-color:rgb(0%,0%,0%);stop-opacity:0;"/>
</radialGradient>
<radialGradient id="radial3" gradientUnits="userSpaceOnUse" cx="450.908936" cy="189.579361" fx="450.908936" fy="189.579361" r="21.166656" gradientTransform="matrix(0.00000017417,0.0781325,-0.140638,0.000000101539,50.146083,-10.173566)">
<stop offset="0" style="stop-color:rgb(0%,0%,0%);stop-opacity:0.313725;"/>
<stop offset="0.222222" style="stop-color:rgb(0%,0%,0%);stop-opacity:0.27451;"/>
<stop offset="1" style="stop-color:rgb(0%,0%,0%);stop-opacity:0;"/>
</radialGradient>
<linearGradient id="linear0" gradientUnits="userSpaceOnUse" x1="255.323059" y1="233.5" x2="255.323044" y2="254.666656" gradientTransform="matrix(0.0133601,0,0,0.062506,10.15006,10.7927)">
<stop offset="0" style="stop-color:rgb(0%,0%,0%);stop-opacity:0.27451;"/>
<stop offset="1" style="stop-color:rgb(0%,0%,0%);stop-opacity:0;"/>
</linearGradient>
<linearGradient id="linear1" gradientUnits="userSpaceOnUse" x1="254" y1="191.166672" x2="254" y2="-126.333344" gradientTransform="matrix(0.062506,0,0,0.062506,0,13.438783)">
<stop offset="0" style="stop-color:rgb(69.019608%,74.509804%,77.254902%);stop-opacity:1;"/>
<stop offset="1" style="stop-color:rgb(81.176471%,84.705882%,86.27451%);stop-opacity:1;"/>
</linearGradient>
<linearGradient id="linear2" gradientUnits="userSpaceOnUse" x1="227.541672" y1="244.083328" x2="227.541672" y2="-168.666656" >
<stop offset="0" style="stop-color:rgb(37.647059%,49.019608%,54.509804%);stop-opacity:1;"/>
<stop offset="1" style="stop-color:rgb(47.058824%,56.470588%,61.176471%);stop-opacity:1;"/>
</linearGradient>
</defs>
<g id="surface1">
<path style=" stroke:none;fill-rule:nonzero;fill:url(#radial0);" d="M 23.816406 25.386719 L 26.460938 25.386719 L 26.460938 24.066406 L 23.816406 24.066406 Z M 23.816406 25.386719 "/>
<path style=" stroke:none;fill-rule:nonzero;fill:url(#radial1);" d="M 6.613281 25.386719 L 3.96875 25.386719 L 3.96875 26.710938 L 6.613281 26.710938 Z M 6.613281 25.386719 "/>
<path style=" stroke:none;fill-rule:nonzero;fill:url(#radial2);" d="M 6.613281 25.386719 L 3.96875 25.386719 L 3.96875 24.066406 L 6.613281 24.066406 Z M 6.613281 25.386719 "/>
<path style=" stroke:none;fill-rule:nonzero;fill:url(#radial3);" d="M 23.816406 25.386719 L 26.460938 25.386719 L 26.460938 26.710938 L 23.816406 26.710938 Z M 23.816406 25.386719 "/>
<path style=" stroke:none;fill-rule:nonzero;fill:url(#linear0);" d="M 6.613281 25.058594 L 23.816406 25.058594 L 23.816406 26.710938 L 6.613281 26.710938 Z M 6.613281 25.058594 "/>
<path style=" stroke:none;fill-rule:nonzero;fill:url(#linear1);" d="M 15.203125 5.53125 C 10.070312 5.53125 5.941406 9.894531 5.941406 15.3125 L 5.941406 15.59375 C 5.941406 15.773438 5.945312 15.949219 5.953125 16.125 C 3.726562 16.269531 1.972656 18.167969 1.972656 20.511719 L 1.972656 20.980469 C 1.972656 23.417969 3.867188 25.375 6.222656 25.375 L 9.921875 25.375 L 9.921875 25.386719 L 23.816406 25.386719 C 27.480469 25.386719 30.429688 22.433594 30.429688 18.769531 C 30.429688 15.160156 27.566406 12.242188 23.972656 12.15625 C 22.738281 8.296875 19.285156 5.53125 15.203125 5.53125 Z M 15.203125 5.53125 "/>
<path style=" stroke:none;fill-rule:nonzero;fill:rgb(98.039216%,98.039216%,98.039216%);fill-opacity:0.588235;" d="M 6.589844 16.125 C 4.011719 16.125 1.933594 18.191406 1.933594 20.757812 C 1.933594 20.828125 1.9375 20.894531 1.941406 20.964844 C 2.046875 18.496094 4.082031 16.539062 6.589844 16.539062 C 9.101562 16.539062 11.132812 18.496094 11.242188 20.964844 C 11.242188 20.894531 11.246094 20.828125 11.246094 20.757812 C 11.246094 18.191406 9.167969 16.125 6.589844 16.125 Z M 6.589844 16.125 "/>
<path style=" stroke:none;fill-rule:nonzero;fill:rgb(100%,100%,100%);fill-opacity:0.392157;" d="M 15.203125 5.53125 C 10.070312 5.53125 5.941406 9.894531 5.941406 15.3125 L 5.941406 15.59375 C 5.941406 15.632812 5.941406 15.667969 5.941406 15.703125 C 6 10.339844 10.109375 6.039062 15.203125 6.039062 C 19.285156 6.039062 22.738281 8.804688 23.972656 12.664062 C 27.480469 12.746094 30.292969 15.53125 30.425781 19.023438 C 30.429688 18.941406 30.429688 18.855469 30.429688 18.769531 C 30.429688 15.160156 27.566406 12.242188 23.972656 12.15625 C 22.738281 8.296875 19.285156 5.53125 15.203125 5.53125 Z M 5.941406 16.125 C 3.71875 16.277344 1.972656 18.175781 1.972656 20.511719 L 1.972656 20.980469 C 1.972656 20.988281 1.972656 20.992188 1.972656 21 C 1.980469 18.667969 3.730469 16.773438 5.953125 16.632812 C 5.945312 16.464844 5.941406 16.296875 5.941406 16.125 Z M 5.941406 16.125 "/>
<path style="fill-rule:nonzero;fill:url(#linear2);stroke-width:3;stroke-linecap:butt;stroke-linejoin:miter;stroke:rgb(12.941177%,12.941177%,12.941177%);stroke-opacity:1;stroke-miterlimit:4;" d="M 201.105795 -72.888571 C 174.98329 -72.888571 153.735319 -54.452831 153.735319 -31.267546 L 153.735319 31.788933 C 153.735319 38.975747 159.547264 44.725197 166.671584 44.725197 C 173.858397 44.725197 179.670342 38.975747 179.670342 31.788933 L 179.670342 14.603074 C 179.670342 9.041105 184.044925 4.666523 189.606893 4.666523 L 212.604697 4.666523 C 218.104172 4.666523 222.541248 9.041105 222.541248 14.603074 L 222.541248 31.788933 C 222.541248 38.975747 228.353193 44.725197 235.477513 44.725197 C 242.664327 44.725197 248.476272 38.975747 248.476272 31.788933 L 248.476272 -31.267546 C 248.476272 -54.452831 227.228301 -72.888571 201.105795 -72.888571 Z M 201.105795 -46.953548 C 205.105413 -46.953548 210.79237 -45.891149 215.166953 -43.703858 C 219.604029 -41.516567 222.603742 -38.454359 222.541248 -34.204765 L 222.541248 -25.580589 C 222.541248 -20.01862 218.104172 -15.581544 212.604697 -15.581544 L 189.606893 -15.581544 C 184.107419 -15.581544 179.670342 -20.01862 179.670342 -25.580589 L 179.670342 -34.142271 C 179.670342 -38.454359 182.73255 -41.579061 187.107132 -43.703858 C 191.481714 -45.891149 197.043683 -46.953548 201.105795 -46.953548 Z M 201.105795 -46.953548 " transform="matrix(0.062506,0,0,0.062506,0,13.438783)"/>
<path style=" stroke:none;fill-rule:nonzero;fill:rgb(0%,0%,0%);fill-opacity:0.235294;" d="M 5.941406 15.195312 C 5.941406 15.234375 5.941406 15.273438 5.941406 15.3125 L 5.941406 15.59375 C 5.941406 15.601562 5.941406 15.609375 5.941406 15.617188 C 5.945312 15.617188 5.949219 15.617188 5.953125 15.617188 C 5.945312 15.476562 5.941406 15.335938 5.941406 15.195312 Z M 30.425781 18.515625 C 30.292969 22.0625 27.394531 24.878906 23.816406 24.878906 L 9.921875 24.878906 L 9.921875 24.871094 L 6.222656 24.871094 C 3.875 24.871094 1.980469 22.917969 1.972656 20.492188 C 1.972656 20.5 1.972656 20.503906 1.972656 20.511719 L 1.972656 20.980469 C 1.972656 23.417969 3.867188 25.375 6.222656 25.375 L 9.921875 25.375 L 9.921875 25.386719 L 23.816406 25.386719 C 27.480469 25.386719 30.429688 22.433594 30.429688 18.769531 C 30.429688 18.6875 30.429688 18.601562 30.425781 18.515625 Z M 30.425781 18.515625 "/>
<path style=" stroke:none;fill-rule:nonzero;fill:rgb(98.039216%,98.039216%,98.039216%);fill-opacity:0.588235;" d="M 23.980469 12.15625 C 20.40625 12.15625 17.53125 15.109375 17.53125 18.773438 C 17.53125 18.855469 17.53125 18.9375 17.535156 19.019531 C 17.660156 15.472656 20.488281 12.652344 23.980469 12.652344 C 27.472656 12.652344 30.300781 15.472656 30.425781 19.019531 C 30.429688 18.9375 30.429688 18.855469 30.429688 18.773438 C 30.429688 15.109375 27.554688 12.15625 23.980469 12.15625 Z M 23.980469 12.15625 "/>
<path style=" stroke:none;fill-rule:nonzero;fill:rgb(12.941177%,12.941177%,12.941177%);fill-opacity:1;" d="M 15.203125 5.4375 C 10.019531 5.4375 5.847656 9.847656 5.847656 15.3125 L 5.847656 15.59375 C 5.847656 15.746094 5.851562 15.894531 5.859375 16.042969 C 3.621094 16.234375 1.878906 18.15625 1.878906 20.511719 L 1.878906 20.980469 C 1.878906 23.464844 3.816406 25.46875 6.222656 25.46875 L 9.882812 25.46875 C 9.894531 25.476562 9.910156 25.480469 9.921875 25.480469 L 23.816406 25.480469 C 27.53125 25.480469 30.523438 22.484375 30.523438 18.769531 C 30.523438 15.132812 27.652344 12.1875 24.042969 12.070312 C 22.777344 8.203125 19.308594 5.4375 15.203125 5.4375 Z M 15.203125 5.625 C 19.242188 5.625 22.660156 8.359375 23.886719 12.1875 C 23.898438 12.222656 23.933594 12.25 23.972656 12.25 C 27.511719 12.335938 30.335938 15.207031 30.335938 18.769531 C 30.335938 22.386719 27.429688 25.292969 23.816406 25.292969 L 9.960938 25.292969 C 9.949219 25.285156 9.9375 25.285156 9.921875 25.28125 L 6.222656 25.28125 C 3.921875 25.28125 2.066406 23.367188 2.066406 20.980469 L 2.066406 20.511719 C 2.066406 18.214844 3.78125 16.359375 5.960938 16.21875 C 6.011719 16.214844 6.050781 16.171875 6.046875 16.121094 C 6.039062 15.945312 6.035156 15.769531 6.035156 15.59375 L 6.035156 15.3125 C 6.035156 9.941406 10.125 5.625 15.203125 5.625 Z M 15.203125 5.625 "/>
</g>
</svg>

<svg xmlns="http://www.w3.org/2000/svg" width="32pt" height="32pt" viewBox="0 0 32 32"><defs><radialGradient id="a" gradientUnits="userSpaceOnUse" cx="450.909" cy="189.579" fx="450.909" fy="189.579" r="21.167" gradientTransform="matrix(0 -.07813 -.14064 0 50.146 60.95)"><stop offset="0" stop-opacity=".314"/><stop offset=".222" stop-opacity=".275"/><stop offset="1" stop-opacity="0"/></radialGradient><radialGradient id="b" gradientUnits="userSpaceOnUse" cx="450.909" cy="189.579" fx="450.909" fy="189.579" r="21.167" gradientTransform="matrix(0 .07813 .14064 0 -19.716 -10.174)"><stop offset="0" stop-opacity=".314"/><stop offset=".222" stop-opacity=".275"/><stop offset="1" stop-opacity="0"/></radialGradient><radialGradient id="c" gradientUnits="userSpaceOnUse" cx="450.909" cy="189.579" fx="450.909" fy="189.579" r="21.167" gradientTransform="matrix(0 -.07813 .14064 0 -19.716 60.95)"><stop offset="0" stop-opacity=".314"/><stop offset=".222" stop-opacity=".275"/><stop offset="1" stop-opacity="0"/></radialGradient><radialGradient id="d" gradientUnits="userSpaceOnUse" cx="450.909" cy="189.579" fx="450.909" fy="189.579" r="21.167" gradientTransform="matrix(0 .07813 -.14064 0 50.146 -10.174)"><stop offset="0" stop-opacity=".314"/><stop offset=".222" stop-opacity=".275"/><stop offset="1" stop-opacity="0"/></radialGradient><linearGradient id="e" gradientUnits="userSpaceOnUse" x1="255.323" y1="233.5" x2="255.323" y2="254.667" gradientTransform="matrix(.01336 0 0 .0625 10.15 10.793)"><stop offset="0" stop-opacity=".275"/><stop offset="1" stop-opacity="0"/></linearGradient><linearGradient id="f" gradientUnits="userSpaceOnUse" x1="254" y1="191.167" x2="254" y2="-126.333" gradientTransform="matrix(.0625 0 0 .0625 0 13.439)"><stop offset="0" stop-color="#b0bec5"/><stop offset="1" stop-color="#cfd8dc"/></linearGradient><linearGradient id="g" gradientUnits="userSpaceOnUse" x1="227.542" y1="244.083" x2="227.542" y2="-168.667"><stop offset="0" stop-color="#607d8b"/><stop offset="1" stop-color="#78909c"/></linearGradient></defs><path d="M23.816 25.387h2.645v-1.32h-2.645zm0 0" fill="url(#a)"/><path d="M6.613 25.387H3.97v1.324h2.644zm0 0" fill="url(#b)"/><path d="M6.613 25.387H3.97v-1.32h2.644zm0 0" fill="url(#c)"/><path d="M23.816 25.387h2.645v1.324h-2.645zm0 0" fill="url(#d)"/><path d="M6.613 25.059h17.203v1.652H6.613zm0 0" fill="url(#e)"/><path d="M15.203 5.531c-5.133 0-9.262 4.364-9.262 9.782v.28c0 .18.004.356.012.532-2.226.145-3.98 2.043-3.98 4.387v.468c0 2.438 1.894 4.395 4.25 4.395h3.699v.012h13.894a6.602 6.602 0 0 0 6.614-6.617 6.602 6.602 0 0 0-6.457-6.614c-1.235-3.86-4.688-6.625-8.77-6.625zm0 0" fill="url(#f)"/><path d="M6.59 16.125a4.635 4.635 0 0 0-4.656 4.633c0 .07.004.137.007.207.106-2.469 2.141-4.426 4.649-4.426a4.636 4.636 0 0 1 4.652 4.426c0-.07.004-.137.004-.207a4.635 4.635 0 0 0-4.656-4.633zm0 0" fill="#fafafa" fill-opacity=".588"/><path d="M15.203 5.531c-5.133 0-9.262 4.364-9.262 9.782v.39C6 10.34 10.11 6.04 15.203 6.04c4.082 0 7.535 2.766 8.77 6.625a6.602 6.602 0 0 1 6.453 6.36c.004-.083.004-.169.004-.254a6.602 6.602 0 0 0-6.457-6.614c-1.235-3.86-4.688-6.625-8.77-6.625zM5.941 16.125c-2.222.152-3.968 2.05-3.968 4.387V21c.007-2.332 1.757-4.227 3.98-4.367a10.886 10.886 0 0 1-.012-.508zm0 0" fill="#fff" fill-opacity=".392"/><path d="M201.106-72.889c-26.123 0-47.37 18.436-47.37 41.621V31.79c0 7.187 5.811 12.936 12.936 12.936 7.186 0 12.998-5.75 12.998-12.936V14.603c0-5.562 4.375-9.936 9.937-9.936h22.998c5.5 0 9.936 4.374 9.936 9.936V31.79c0 7.187 5.812 12.936 12.937 12.936 7.186 0 12.998-5.75 12.998-12.936v-63.057c0-23.185-21.248-41.62-47.37-41.62zm0 25.935c4 0 9.686 1.063 14.061 3.25 4.437 2.187 7.437 5.25 7.374 9.5v8.623c0 5.562-4.437 10-9.936 10h-22.998c-5.5 0-9.937-4.438-9.937-10v-8.561c0-4.312 3.063-7.437 7.437-9.562 4.375-2.187 9.937-3.25 13.999-3.25zm0 0" transform="matrix(.0625 0 0 .0625 0 13.439)" fill="url(#g)" stroke-width="3" stroke="#212121"/><path d="M5.941 15.195v.422h.012a7.604 7.604 0 0 1-.012-.422zm24.485 3.32a6.602 6.602 0 0 1-6.61 6.364H9.922v-.008h-3.7c-2.347 0-4.242-1.953-4.25-4.379V20.98c0 2.438 1.895 4.395 4.25 4.395h3.7v.012h13.894a6.602 6.602 0 0 0 6.614-6.617c0-.082 0-.168-.004-.254zm0 0" fill-opacity=".235"/><path d="M23.98 12.156c-3.574 0-6.449 2.953-6.449 6.617 0 .082 0 .165.004.247.125-3.547 2.953-6.368 6.445-6.368 3.493 0 6.32 2.82 6.446 6.368.004-.082.004-.165.004-.247 0-3.664-2.875-6.617-6.45-6.617zm0 0" fill="#fafafa" fill-opacity=".588"/><path d="M15.203 5.438c-5.183 0-9.355 4.41-9.355 9.875v.28c0 .153.004.302.011.45-2.238.191-3.98 2.113-3.98 4.469v.468c0 2.485 1.937 4.489 4.344 4.489h3.66a.075.075 0 0 0 .039.011h13.894a6.697 6.697 0 0 0 6.707-6.71 6.69 6.69 0 0 0-6.48-6.7c-1.266-3.867-4.734-6.633-8.84-6.633zm0 .187c4.04 0 7.457 2.734 8.684 6.563a.093.093 0 0 0 .086.062 6.507 6.507 0 0 1 6.363 6.52 6.504 6.504 0 0 1-6.52 6.523H9.961c-.012-.008-.024-.008-.04-.012H6.224c-2.301 0-4.157-1.914-4.157-4.3v-.47c0-2.296 1.715-4.152 3.895-4.292a.092.092 0 0 0 .086-.098 11.875 11.875 0 0 1-.012-.527v-.281c0-5.372 4.09-9.688 9.168-9.688zm0 0" fill="#212121"/></svg>
